shapes/98.svg

<?xml version="1.0" encoding="UTF-8" standalone="no"?>
<svg
   ffdec:objectType="shape"
   height="90"
   width="66"
   viewBox="0 0 17.467055 12.922575"
   version="1.1"
   id="svg4"
   sodipodi:docname="98.svg"
   inkscape:version="1.3.2 (091e20e, 2023-11-25)"
   xmlns:inkscape="http://www.inkscape.org/namespaces/inkscape"
   xmlns:sodipodi="http://sodipodi.sourceforge.net/DTD/sodipodi-0.dtd"
   xmlns="http://www.w3.org/2000/svg"
   xmlns:svg="http://www.w3.org/2000/svg"
   xmlns:ffdec="https://www.free-decompiler.com/flash">
  <defs
     id="defs4" />
  <sodipodi:namedview
     id="namedview4"
     pagecolor="#ffffff"
     bordercolor="#000000"
     borderopacity="0.25"
     inkscape:showpageshadow="2"
     inkscape:pageopacity="0.0"
     inkscape:pagecheckerboard="0"
     inkscape:deskcolor="#d1d1d1"
     inkscape:zoom="6.1839853"
     inkscape:cx="18.919838"
     inkscape:cy="45.359099"
     inkscape:window-width="1896"
     inkscape:window-height="1018"
     inkscape:window-x="0"
     inkscape:window-y="44"
     inkscape:window-maximized="0"
     inkscape:current-layer="svg4" />
  <g
     transform="translate(8.6622061,6.5226761)"
     id="g4">
    <path
       d="M 6,2.6 5.6,2.75 H 5.55 5.45 Q 4.9,2.75 4.55,1.85 4.15,1 4.15,-0.25 4.15,-1.5 4.55,-2.4 4.9,-3.25 5.45,-3.25 H 5.55 5.6 L 6,-3.15 6.85,-2.4 Q 7.4,-1.5 7.45,-0.25 7.4,1 6.85,1.85 L 6,2.6"
       fill="#ffffff"
       fill-rule="evenodd"
       stroke="none"
       id="path1" />
    <path
       d="M 6,-3.15 5.6,-3.25 H 5.55 5.45 q -0.55,0 -0.9,0.85 -0.4,0.9 -0.4,2.15 0,1.25 0.4,2.1 0.35,0.9 0.9,0.9 H 5.55 5.6 L 6,2.6 q -0.5,2.3 -1.7,4.05 -2,2.9 -4.8,2.9 -2.85,0 -4.75,-2.9 -2.05,-2.8 -2,-6.9 -0.05,-4.1 2,-7 1.9,-2.8 4.75,-2.8 2.8,0 4.8,2.8 1.2,1.8 1.7,4.1"
       fill="#6bff09"
       fill-rule="evenodd"
       stroke="none"
       id="path2" />
    <path
       d="m 5.3,-8.45 q 1.2,1.85 1.8,4.05 l 0.7,0.75 0.05,0.05 q 0.95,1.45 0.95,3.55 0,2.1 -1,3.5 l -0.7,0.8 q -0.6,2.2 -1.8,4 -2.45,3.5 -5.8,3.5 -3.4,0 -5.75,-3.45 V 8.25 q -2.4,-3.4 -2.4,-8.3 0,-4.9 2.4,-8.4 2.3,-3.4 5.75,-3.4 3.35,0 5.8,3.35 v 0.05 m 0.7,5.3 q -0.5,-2.3 -1.7,-4.1 -2,-2.8 -4.8,-2.8 -2.85,0 -4.75,2.8 -2.05,2.9 -2,7 -0.05,4.1 2,6.9 1.9,2.9 4.75,2.9 2.8,0 4.8,-2.9 Q 5.5,4.9 6,2.6 L 6.85,1.85 Q 7.4,1 7.45,-0.25 7.4,-1.5 6.85,-2.4 L 6,-3.15"
       fill="#0a6d13"
       fill-rule="evenodd"
       stroke="none"
       id="path3" />
    <path
       d="M 3.75,-4.5 Q 3.3,-4 2.95,-3.15 L 3,-3.2 Q 2.4,-2 2.4,-0.25 2.4,1.5 3,2.7 L 2.95,2.6 3.75,4 2.9,5.5 v 0.05 q -1.35,1.9 -3.15,2 -1.85,-0.1 -3.1,-2 L -3.4,5.5 Q -5.05,3.15 -5,-0.25 -5,-3.7 -3.35,-6.1 -2.1,-8 -0.25,-8.05 1.55,-8 2.9,-6.1 l 0.85,1.6"
       fill="#0db71d"
       fill-rule="evenodd"
       stroke="none"
       id="path4" />
  </g>
</svg>

<?xml version="1.0" encoding="UTF-8" standalone="no"?>
<svg xmlns:ffdec="https://www.free-decompiler.com/flash" xmlns:xlink="http://www.w3.org/1999/xlink" ffdec:objectType="shape" height="118px" width="87.25px" viewBox="0 0 23.6 17.45" xmlns="http://www.w3.org/2000/svg">
  <g transform="matrix(1.0, 0.0, 0.0, 1.0, 8.65, 11.85)">
    <path d="M6.0 2.6 L5.6 2.75 5.55 2.75 5.45 2.75 Q4.9 2.75 4.55 1.85 4.15 1.0 4.15 -0.25 4.15 -1.5 4.55 -2.4 4.9 -3.25 5.45 -3.25 L5.55 -3.25 5.6 -3.25 6.0 -3.15 6.85 -2.4 Q7.4 -1.5 7.45 -0.25 7.4 1.0 6.85 1.85 L6.0 2.6" fill="#ffffff" fill-rule="evenodd" stroke="none"/>
    <path d="M6.0 -3.15 L5.6 -3.25 5.55 -3.25 5.45 -3.25 Q4.9 -3.25 4.55 -2.4 4.15 -1.5 4.15 -0.25 4.15 1.0 4.55 1.85 4.9 2.75 5.45 2.75 L5.55 2.75 5.6 2.75 6.0 2.6 Q5.5 4.9 4.3 6.65 2.3 9.55 -0.5 9.55 -3.35 9.55 -5.25 6.65 -7.3 3.85 -7.25 -0.25 -7.3 -4.35 -5.25 -7.25 -3.35 -10.05 -0.5 -10.05 2.3 -10.05 4.3 -7.25 5.5 -5.45 6.0 -3.15" fill="#6bff09" fill-rule="evenodd" stroke="none"/>
    <path d="M5.3 -8.45 Q6.5 -6.6 7.1 -4.4 L7.8 -3.65 7.85 -3.6 Q8.8 -2.15 8.8 -0.05 8.8 2.05 7.8 3.45 L7.1 4.25 Q6.5 6.45 5.3 8.25 2.85 11.75 -0.5 11.75 -3.9 11.75 -6.25 8.3 L-6.25 8.25 Q-8.65 4.85 -8.65 -0.05 -8.65 -4.95 -6.25 -8.45 -3.95 -11.85 -0.5 -11.85 2.85 -11.85 5.3 -8.5 L5.3 -8.45 M6.0 -3.15 Q5.5 -5.45 4.3 -7.25 2.3 -10.05 -0.5 -10.05 -3.35 -10.05 -5.25 -7.25 -7.3 -4.35 -7.25 -0.25 -7.3 3.85 -5.25 6.65 -3.35 9.55 -0.5 9.55 2.3 9.55 4.3 6.65 5.5 4.9 6.0 2.6 L6.85 1.85 Q7.4 1.0 7.45 -0.25 7.4 -1.5 6.85 -2.4 L6.0 -3.15" fill="#0a6d13" fill-rule="evenodd" stroke="none"/>
    <path d="M3.75 -4.5 Q3.3 -4.0 2.95 -3.15 L3.0 -3.2 Q2.4 -2.0 2.4 -0.25 2.4 1.5 3.0 2.7 L2.95 2.6 3.75 4.0 2.9 5.5 2.9 5.55 Q1.55 7.45 -0.25 7.55 -2.1 7.45 -3.35 5.55 L-3.4 5.5 Q-5.05 3.15 -5.0 -0.25 -5.0 -3.7 -3.35 -6.1 -2.1 -8.0 -0.25 -8.05 1.55 -8.0 2.9 -6.1 L3.75 -4.5" fill="#0db71d" fill-rule="evenodd" stroke="none"/>
  </g>
</svg>
